dist/assets/img/questions/1/answers/1_1200.svg

<svg width="481" height="282" viewBox="0 0 481 282" fill="none" xmlns="http://www.w3.org/2000/svg">
<g filter="url(#filter0_di_1419_54363)">
<path fill-rule="evenodd" clip-rule="evenodd" d="M60.9116 28C56.8274 28 53.399 31.0765 52.9583 35.1369L36.0281 191.137C35.5145 195.869 39.2215 200 43.9814 200H318.715C322.386 200 325.55 202.512 326.794 205.966C330.349 215.843 337.499 228.721 348.762 232.959C348.829 232.984 348.891 232.912 348.856 232.849C346.205 228.078 340.821 218.384 339.624 207.351C339.175 203.214 342.709 200 346.87 200H415.221C419.305 200 422.733 196.923 423.174 192.863L440.104 36.8631C440.618 32.131 436.911 28 432.151 28H60.9116Z" fill="#FFF0CB"/>
</g>
<defs>
<filter id="filter0_di_1419_54363" x="-4.01953" y="0" width="484.172" height="284.964" filterUnits="userSpaceOnUse" color-interpolation-filters="sRGB">
<feFlood flood-opacity="0" result="BackgroundImageFix"/>
<feColorMatrix in="SourceAlpha" type="matrix" values="0 0 0 0 0 0 0 0 0 0 0 0 0 0 0 0 0 0 127 0" result="hardAlpha"/>
<feOffset dy="12"/>
<feGaussianBlur stdDeviation="20"/>
<feComposite in2="hardAlpha" operator="out"/>
<feColorMatrix type="matrix" values="0 0 0 0 1 0 0 0 0 1 0 0 0 0 1 0 0 0 1 0"/>
<feBlend mode="normal" in2="BackgroundImageFix" result="effect1_dropShadow_1419_54363"/>
<feBlend mode="normal" in="SourceGraphic" in2="effect1_dropShadow_1419_54363" result="shape"/>
<feColorMatrix in="SourceAlpha" type="matrix" values="0 0 0 0 0 0 0 0 0 0 0 0 0 0 0 0 0 0 127 0" result="hardAlpha"/>
<feOffset dy="-4"/>
<feGaussianBlur stdDeviation="4"/>
<feComposite in2="hardAlpha" operator="arithmetic" k2="-1" k3="1"/>
<feColorMatrix type="matrix" values="0 0 0 0 0.883659 0 0 0 0 0.635314 0 0 0 0 0.0558422 0 0 0 0.4 0"/>
<feBlend mode="normal" in2="shape" result="effect2_innerShadow_1419_54363"/>
</filter>
</defs>
</svg>

<svg width="481" height="282" viewBox="0 0 481 282" fill="none" xmlns="http://www.w3.org/2000/svg"><g filter="url(#filter0_di_1419_54363)"><path fill-rule="evenodd" clip-rule="evenodd" d="M60.912 28a8 8 0 00-7.954 7.137l-16.93 156c-.514 4.732 3.194 8.863 7.953 8.863h274.734c3.671 0 6.835 2.512 8.079 5.966 3.555 9.877 10.705 22.755 21.968 26.993a.077.077 0 00.094-.11c-2.651-4.771-8.035-14.465-9.232-25.498-.449-4.137 3.085-7.351 7.246-7.351h68.351a8 8 0 007.953-7.137l16.93-156c.514-4.732-3.193-8.863-7.953-8.863H60.911z" fill="#FFF0CB"/></g><defs><filter id="filter0_di_1419_54363" x="-4.02" y="0" width="484.172" height="284.964" filterUnits="userSpaceOnUse" color-interpolation-filters="sRGB"><feFlood flood-opacity="0" result="BackgroundImageFix"/><feColorMatrix in="SourceAlpha" values="0 0 0 0 0 0 0 0 0 0 0 0 0 0 0 0 0 0 127 0" result="hardAlpha"/><feOffset dy="12"/><feGaussianBlur stdDeviation="20"/><feComposite in2="hardAlpha" operator="out"/><feColorMatrix values="0 0 0 0 1 0 0 0 0 1 0 0 0 0 1 0 0 0 1 0"/><feBlend in2="BackgroundImageFix" result="effect1_dropShadow_1419_54363"/><feBlend in="SourceGraphic" in2="effect1_dropShadow_1419_54363" result="shape"/><feColorMatrix in="SourceAlpha" values="0 0 0 0 0 0 0 0 0 0 0 0 0 0 0 0 0 0 127 0" result="hardAlpha"/><feOffset dy="-4"/><feGaussianBlur stdDeviation="4"/><feComposite in2="hardAlpha" operator="arithmetic" k2="-1" k3="1"/><feColorMatrix values="0 0 0 0 0.883659 0 0 0 0 0.635314 0 0 0 0 0.0558422 0 0 0 0.4 0"/><feBlend in2="shape" result="effect2_innerShadow_1419_54363"/></filter></defs></svg>
